Dominus_Dark_Funeral/scalable/apps/orca.svg

<?xml version="1.0" encoding="UTF-8" standalone="no"?><svg xmlns:dc="http://purl.org/dc/elements/1.1/" xmlns:cc="http://creativecommons.org/ns#" xmlns:rdf="http://www.w3.org/1999/02/22-rdf-syntax-ns#" xmlns="http://www.w3.org/2000/svg" xmlns:xlink="http://www.w3.org/1999/xlink" width="48" height="48" viewBox="0 0 12.7 12.7"><metadata><rdf:RDF><cc:Work><dc:format>image/svg+xml</dc:format><dc:type rdf:resource="http://purl.org/dc/dcmitype/StillImage"/><dc:title/></cc:Work></rdf:RDF></metadata><defs><linearGradient id="d"><stop offset="0" stop-color="#1a1a1a"/><stop offset="1" stop-color="#1a1a1a"/></linearGradient><linearGradient id="e"><stop offset="0" stop-color="#d5fff6"/><stop offset="1" stop-color="#0a8"/></linearGradient><linearGradient id="c"><stop offset="0" stop-color="#1a1a1a"/><stop offset="1" stop-color="#4d4d4d"/></linearGradient><linearGradient id="b"><stop offset="0" stop-color="#00000b"/><stop offset="1" stop-opacity=".03"/></linearGradient><linearGradient id="a"><stop offset="0" stop-color="#788492"/><stop offset="1" stop-color="#fafafa"/></linearGradient><linearGradient xlink:href="#d" id="g" x1="7.09" y1="5.41" x2="-2.63" y2="-10.43" gradientUnits="userSpaceOnUse"/><linearGradient xlink:href="#e" id="f" gradientUnits="userSpaceOnUse" x1="2.64" y1=".36" x2="8.75" y2="13.98"/></defs><path d="M2.55 8.59c.16.26.37.69.46.83.54.85 1.13 1.61 1.65 2.16.68.7 1.21 1.03 1.69 1.03s1.01-.33 1.69-1.03a15.2 15.2 0 0 0 1.65-2.15c.47-.74 2-3.3 2-5.21 0-.76-.17-1.42-.49-2v.01l-1.14-.7L8.44.61 7.19.54l-4.02.59-1.25 1.3-.36 1.32v2.78l.06.18.6 1.08.36.68z" fill="url(#f)"/><path d="M1 4.07v.14c0 .48.07 1 .22 1.52s.35 1.01.57 1.5c.34.74.66 1.27.92 1.7.01-.1.05-.25.02-.38-.06-.25-.05-.27.06-.27.4.02.85-.04.88-.11.09-.23-.64-.53-1.15-.49-.13.01-.23-.06-.4-.22-.22-.44-.22-.77-.03-1.5A2.9 2.9 0 0 1 3 4.42a5.33 5.33 0 0 1 2.72-1.18c.6-.09.75-.1.76-.03-.42.4-.73.82-.36.92 1.32-.05 1.64-.45 1.85-.76l.14-.1c.18-.12.45-.19 1.15-.3 1.18-.16 1.9-.36 1.98-.54.02-.06 0-.14-.04-.2A3.43 3.43 0 0 0 10.04.97 6.75 6.75 0 0 0 6.35.1v.01c-.77 0-1.46.07-2.08.22a5.9 5.9 0 0 0-1.61.65A3.67 3.67 0 0 0 1 4.08zM8.58 1c.3.04.76.3.72.47-.2.32-1-.18-.94-.42.04-.05.12-.06.22-.05zm.85 1.05c.02 0 .07.05.1.09.05.04.17.07.29.07.13-.01.32.05.53.14.5.23.52.25.28.32-.2.07-2.04.37-2.12.35-.02 0-.01-.11.01-.23.04-.14.03-.25-.03-.3-.09-.09-.08-.1.13-.21.2-.1.72-.24.81-.23zm-5.64.43c.32 0 .53.15.8.51l.28.37-.35.11c-.31.1-.38.1-.52 0-.3-.2-.6-.16-1.07.17-.53.36-.61.31-.43-.24.16-.5.45-.76.94-.87.13-.03.25-.05.35-.05z" fill="url(#g)" fill-rule="evenodd"/><path d="M1.04 3.9c0 .1-.04.2-.04.32 0 1.91 1.54 4.47 2.01 5.2.54.85 1.13 1.61 1.65 2.16.68.7 1.21 1.03 1.69 1.03s1.01-.33 1.69-1.03a15.2 15.2 0 0 0 1.65-2.15c.47-.74 2-3.3 2-5.21 0-.11-.02-.21-.03-.32a5.5 5.5 0 0 1-.21 1.3c-.15.53-.36 1.05-.58 1.53-.44.97-.95 1.8-1.18 2.17a15.2 15.2 0 0 1-1.65 2.15 4.9 4.9 0 0 1-.92.78c-.28.17-.53.25-.77.25s-.5-.08-.77-.25a4.76 4.76 0 0 1-.92-.78A14.41 14.41 0 0 1 3.01 8.9a19.2 19.2 0 0 1-1.18-2.17c-.22-.48-.43-1-.58-1.52a5.66 5.66 0 0 1-.21-1.31z" opacity=".39"/><path d="M2.96 9.36l.05.08c.54.85 1.13 1.61 1.65 2.16.34.35.64.6.92.78.28.17.53.25.77.25s.5-.08.77-.25c.28-.17.58-.43.92-.78.07-.07.15-.2.22-.28-1.33-.37-3.27-.76-3.21-2.72.03-1.19.87-1.98 1.85-1.96.74.02 1.59.5 2.19 1.78.75-.29-.89-3.1-2.98-3.1-.8 0-1.71.45-2.56 1.6a6.1 6.1 0 0 0-.59 2.44z" opacity=".31" fill-rule="evenodd"/></svg>

<?xml version="1.0" encoding="UTF-8" standalone="no"?>
<svg
   xmlns:dc="http://purl.org/dc/elements/1.1/"
   xmlns:cc="http://creativecommons.org/ns#"
   xmlns:rdf="http://www.w3.org/1999/02/22-rdf-syntax-ns#"
   xmlns:svg="http://www.w3.org/2000/svg"
   xmlns="http://www.w3.org/2000/svg"
   xmlns:xlink="http://www.w3.org/1999/xlink"
   xmlns:sodipodi="http://sodipodi.sourceforge.net/DTD/sodipodi-0.dtd"
   xmlns:inkscape="http://www.inkscape.org/namespaces/inkscape"
   width="48"
   height="48"
   viewBox="0 0 12.7 12.7"
   version="1.1"
   id="svg41"
   sodipodi:docname="orca.svg"
   inkscape:version="0.92.4 (5da689c313, 2019-01-14)">
  <sodipodi:namedview
     pagecolor="#ffffff"
     bordercolor="#666666"
     borderopacity="1"
     objecttolerance="10"
     gridtolerance="10"
     guidetolerance="10"
     inkscape:pageopacity="0"
     inkscape:pageshadow="2"
     inkscape:window-width="1112"
     inkscape:window-height="480"
     id="namedview43"
     showgrid="false"
     inkscape:zoom="4.9166667"
     inkscape:cx="2.1355932"
     inkscape:cy="24"
     inkscape:window-x="0"
     inkscape:window-y="25"
     inkscape:window-maximized="0"
     inkscape:current-layer="svg41" />
  <metadata
     id="metadata2">
    <rdf:RDF>
      <cc:Work>
        <dc:format>image/svg+xml</dc:format>
        <dc:type
           rdf:resource="http://purl.org/dc/dcmitype/StillImage" />
        <dc:title></dc:title>
      </cc:Work>
    </rdf:RDF>
  </metadata>
  <defs
     id="defs31">
    <linearGradient
       id="d">
      <stop
         offset="0"
         stop-color="#1a1a1a"
         id="stop4" />
      <stop
         offset="1"
         stop-color="#1a1a1a"
         id="stop6" />
    </linearGradient>
    <linearGradient
       id="e">
      <stop
         offset="0"
         stop-color="#d5fff6"
         id="stop9" />
      <stop
         offset="1"
         stop-color="#0a8"
         id="stop11" />
    </linearGradient>
    <linearGradient
       id="c">
      <stop
         offset="0"
         stop-color="#1a1a1a"
         id="stop14" />
      <stop
         offset="1"
         stop-color="#4d4d4d"
         id="stop16" />
    </linearGradient>
    <linearGradient
       id="b">
      <stop
         offset="0"
         stop-color="#00000b"
         id="stop19" />
      <stop
         offset="1"
         stop-opacity=".03"
         id="stop21" />
    </linearGradient>
    <linearGradient
       id="a">
      <stop
         offset="0"
         stop-color="#788492"
         id="stop24" />
      <stop
         offset="1"
         stop-color="#fafafa"
         id="stop26" />
    </linearGradient>
    <linearGradient
       xlink:href="#d"
       id="g"
       x1="7.09"
       y1="5.41"
       x2="-2.63"
       y2="-10.43"
       gradientUnits="userSpaceOnUse" />
    <linearGradient
       xlink:href="#e"
       id="f"
       gradientUnits="userSpaceOnUse"
       x1="2.64"
       y1=".36"
       x2="8.75"
       y2="13.98" />
  </defs>
  <path
     d="m 2.55,8.59 c 0.16,0.26 0.37,0.69 0.46,0.83 0.54,0.85 1.13,1.61 1.65,2.16 0.68,0.7 1.21,1.03 1.69,1.03 0.48,0 1.01,-0.33 1.69,-1.03 A 15.2,15.2 0 0 0 9.69,9.43 c 0.47,-0.74 2,-3.3 2,-5.21 0,-0.76 -0.17,-1.42 -0.49,-2 V 2.23 L 10.06,1.53 8.44,0.61 7.19,0.54 3.17,1.13 1.92,2.43 1.56,3.75 v 2.78 l 0.06,0.18 0.6,1.08 0.36,0.68 z"
     id="path33"
     style="fill:url(#f)"
     inkscape:connector-curvature="0" />
  <path
     d="m 1,4.07 v 0.14 c 0,0.48 0.07,1 0.22,1.52 0.15,0.52 0.35,1.01 0.57,1.5 C 2.13,7.97 2.45,8.5 2.71,8.93 2.72,8.83 2.76,8.68 2.73,8.55 2.67,8.3 2.68,8.28 2.79,8.28 3.19,8.3 3.64,8.24 3.67,8.17 3.76,7.94 3.03,7.64 2.52,7.68 2.39,7.69 2.29,7.62 2.12,7.46 1.9,7.02 1.9,6.69 2.09,5.96 A 2.9,2.9 0 0 1 3,4.42 5.33,5.33 0 0 1 5.72,3.24 C 6.32,3.15 6.47,3.14 6.48,3.21 6.06,3.61 5.75,4.03 6.12,4.13 7.44,4.08 7.76,3.68 7.97,3.37 l 0.14,-0.1 c 0.18,-0.12 0.45,-0.19 1.15,-0.3 1.18,-0.16 1.9,-0.36 1.98,-0.54 0.02,-0.06 0,-0.14 -0.04,-0.2 A 3.43,3.43 0 0 0 10.04,0.97 6.75,6.75 0 0 0 6.35,0.1 V 0.11 C 5.58,0.11 4.89,0.18 4.27,0.33 A 5.9,5.9 0 0 0 2.66,0.98 3.67,3.67 0 0 0 1,4.08 Z M 8.58,1 C 8.88,1.04 9.34,1.3 9.3,1.47 9.1,1.79 8.3,1.29 8.36,1.05 8.4,1 8.48,0.99 8.58,1 Z m 0.85,1.05 c 0.02,0 0.07,0.05 0.1,0.09 0.05,0.04 0.17,0.07 0.29,0.07 0.13,-0.01 0.32,0.05 0.53,0.14 0.5,0.23 0.52,0.25 0.28,0.32 C 10.43,2.74 8.59,3.04 8.51,3.02 8.49,3.02 8.5,2.91 8.52,2.79 8.56,2.65 8.55,2.54 8.49,2.49 8.4,2.4 8.41,2.39 8.62,2.28 8.82,2.18 9.34,2.04 9.43,2.05 Z M 3.79,2.48 c 0.32,0 0.53,0.15 0.8,0.51 L 4.87,3.36 4.52,3.47 C 4.21,3.57 4.14,3.57 4,3.47 3.7,3.27 3.4,3.31 2.93,3.64 2.4,4 2.32,3.95 2.5,3.4 2.66,2.9 2.95,2.64 3.44,2.53 3.57,2.5 3.69,2.48 3.79,2.48 Z"
     id="path35"
     style="fill:url(#g);fill-rule:evenodd"
     inkscape:connector-curvature="0" />
  <path
     d="M 1.04,3.9 C 1.04,4 1,4.1 1,4.22 c 0,1.91 1.54,4.47 2.01,5.2 0.54,0.85 1.13,1.61 1.65,2.16 0.68,0.7 1.21,1.03 1.69,1.03 0.48,0 1.01,-0.33 1.69,-1.03 A 15.2,15.2 0 0 0 9.69,9.43 c 0.47,-0.74 2,-3.3 2,-5.21 0,-0.11 -0.02,-0.21 -0.03,-0.32 A 5.5,5.5 0 0 1 11.45,5.2 C 11.3,5.73 11.09,6.25 10.87,6.73 10.43,7.7 9.92,8.53 9.69,8.9 A 15.2,15.2 0 0 1 8.04,11.05 4.9,4.9 0 0 1 7.12,11.83 C 6.84,12 6.59,12.08 6.35,12.08 6.11,12.08 5.85,12 5.58,11.83 A 4.76,4.76 0 0 1 4.66,11.05 14.41,14.41 0 0 1 3.01,8.9 19.2,19.2 0 0 1 1.83,6.73 C 1.61,6.25 1.4,5.73 1.25,5.21 A 5.66,5.66 0 0 1 1.04,3.9 Z"
     id="path37"
     inkscape:connector-curvature="0"
     style="opacity:0.38999999" />
  <path
     d="m 2.96,9.36 0.05,0.08 c 0.54,0.85 1.13,1.61 1.65,2.16 0.34,0.35 0.64,0.6 0.92,0.78 0.28,0.17 0.53,0.25 0.77,0.25 0.24,0 0.5,-0.08 0.77,-0.25 C 7.4,12.21 7.7,11.95 8.04,11.6 8.11,11.53 8.19,11.4 8.26,11.32 6.93,10.95 4.99,10.56 5.05,8.6 5.08,7.41 5.92,6.62 6.9,6.64 7.64,6.66 8.49,7.14 9.09,8.42 9.84,8.13 8.2,5.32 6.11,5.32 5.31,5.32 4.4,5.77 3.55,6.92 A 6.1,6.1 0 0 0 2.96,9.36 Z"
     id="path39"
     inkscape:connector-curvature="0"
     style="opacity:0.31000001;fill-rule:evenodd" />
</svg>
